public/logos/8T.svg

<?xml version="1.0" encoding="UTF-8"?>
<svg xmlns="http://www.w3.org/2000/svg" xmlns:xlink="http://www.w3.org/1999/xlink" width="176pt" height="27.77pt" viewBox="0 0 176 27.77" version="1.1">
<defs>
<clipPath id="clip1">
  <path d="M 0 0 L 36 0 L 36 27.769531 L 0 27.769531 Z M 0 0 "/>
</clipPath>
<clipPath id="clip2">
  <path d="M 126 9 L 146 9 L 146 27.769531 L 126 27.769531 Z M 126 9 "/>
</clipPath>
<clipPath id="clip3">
  <path d="M 148 9 L 167 9 L 167 27.769531 L 148 27.769531 Z M 148 9 "/>
</clipPath>
<clipPath id="clip4">
  <path d="M 73 9 L 91 9 L 91 27.769531 L 73 27.769531 Z M 73 9 "/>
</clipPath>
<clipPath id="clip5">
  <path d="M 41 9 L 63 9 L 63 27.769531 L 41 27.769531 Z M 41 9 "/>
</clipPath>
<clipPath id="clip6">
  <path d="M 99 9 L 114 9 L 114 27.769531 L 99 27.769531 Z M 99 9 "/>
</clipPath>
<clipPath id="clip7">
  <path d="M 116 9 L 124 9 L 124 27.769531 L 116 27.769531 Z M 116 9 "/>
</clipPath>
<clipPath id="clip8">
  <path d="M 63 9 L 71 9 L 71 27.769531 L 63 27.769531 Z M 63 9 "/>
</clipPath>
<clipPath id="clip9">
  <path d="M 169 9 L 176 9 L 176 27.769531 L 169 27.769531 Z M 169 9 "/>
</clipPath>
<clipPath id="clip10">
  <path d="M 22 15 L 36 15 L 36 27.769531 L 22 27.769531 Z M 22 15 "/>
</clipPath>
</defs>
<g id="surface1">
<g clip-path="url(#clip1)" clip-rule="nonzero">
<path style=" stroke:none;fill-rule:nonzero;fill:rgb(42.489624%,9.460449%,13.009644%);fill-opacity:1;" d="M 35.53125 0 C 35.53125 0.121094 35.539062 0.242188 35.539062 0.359375 C 35.539062 4.75 35.539062 9.136719 35.539062 13.523438 C 35.539062 13.65625 35.539062 13.785156 35.539062 13.886719 C 35.511719 13.921875 35.503906 13.929688 35.496094 13.9375 C 35.488281 13.941406 35.476562 13.949219 35.46875 13.949219 C 32.515625 13.957031 29.558594 13.960938 26.605469 13.964844 C 26.550781 13.964844 26.5 13.957031 26.40625 13.949219 C 26.957031 12.023438 27.507812 10.113281 28.0625 8.175781 C 27.742188 8.175781 27.464844 8.175781 27.144531 8.175781 C 26.476562 10.085938 25.804688 12.007812 25.121094 13.964844 C 23.597656 13.964844 22.074219 13.964844 20.53125 13.964844 C 20.53125 14.382812 20.53125 14.761719 20.53125 15.179688 C 21.863281 15.207031 23.195312 15.175781 24.5625 15.195312 C 24.496094 15.367188 24.441406 15.515625 24.386719 15.664062 C 23.339844 18.328125 22.207031 20.957031 20.917969 23.519531 C 20.449219 24.449219 19.929688 25.351562 19.230469 26.136719 C 18.65625 26.78125 17.992188 27.296875 17.140625 27.511719 C 16.878906 27.578125 16.609375 27.605469 16.339844 27.636719 C 16.179688 27.65625 16.015625 27.644531 15.851562 27.644531 C 10.714844 27.644531 5.574219 27.644531 0.4375 27.644531 C 0.308594 27.644531 0.179688 27.644531 0 27.644531 C 0.234375 27.191406 0.445312 26.78125 0.660156 26.363281 C 0.726562 26.355469 0.792969 26.34375 0.855469 26.339844 C 2.082031 26.292969 3.308594 26.269531 4.53125 26.195312 C 5.777344 26.121094 7.019531 25.980469 8.222656 25.621094 C 8.828125 25.441406 9.40625 25.199219 9.929688 24.84375 C 10.316406 24.582031 10.617188 24.246094 10.894531 23.878906 C 12.453125 21.800781 13.929688 19.667969 15.179688 17.390625 C 15.867188 16.132812 16.503906 14.851562 17.175781 13.585938 C 19.082031 10.015625 20.992188 6.449219 22.898438 2.878906 C 23.351562 2.027344 23.78125 1.164062 24.21875 0.300781 C 24.269531 0.210938 24.285156 0.101562 24.316406 0 C 28.054688 0 31.792969 0 35.53125 0 "/>
</g>
<g clip-path="url(#clip2)" clip-rule="nonzero">
<path style=" stroke:none;fill-rule:nonzero;fill:rgb(42.489624%,9.460449%,13.009644%);fill-opacity:1;" d="M 126.722656 27.769531 C 126.726562 27.640625 126.730469 27.507812 126.730469 27.378906 C 126.730469 21.449219 126.730469 15.515625 126.730469 9.585938 C 126.730469 9.457031 126.730469 9.324219 126.730469 9.199219 C 126.992188 9.125 132.179688 9.09375 133.285156 9.160156 C 135.175781 12.347656 137.078125 15.554688 138.980469 18.761719 C 138.996094 18.753906 139.015625 18.75 139.03125 18.746094 C 139.011719 18.527344 138.984375 18.3125 138.972656 18.09375 C 138.933594 17.5 138.875 16.902344 138.871094 16.308594 C 138.859375 14.003906 138.863281 11.703125 138.859375 9.398438 C 138.859375 9.324219 138.871094 9.25 138.875 9.164062 C 141.015625 9.164062 143.140625 9.164062 145.28125 9.164062 C 145.289062 9.246094 145.304688 9.316406 145.304688 9.390625 C 145.304688 15.484375 145.304688 21.578125 145.304688 27.671875 C 145.304688 27.703125 145.300781 27.738281 145.300781 27.769531 C 143.105469 27.769531 140.910156 27.769531 138.714844 27.769531 C 137.894531 26.390625 137.078125 25.007812 136.257812 23.628906 C 135.242188 21.914062 134.226562 20.195312 133.210938 18.476562 C 133.15625 18.386719 133.09375 18.304688 133.039062 18.21875 C 133.082031 19.050781 133.160156 19.859375 133.164062 20.671875 C 133.183594 23.039062 133.171875 25.402344 133.175781 27.769531 C 131.023438 27.769531 128.871094 27.769531 126.722656 27.769531 "/>
</g>
<g clip-path="url(#clip3)" clip-rule="nonzero">
<path style=" stroke:none;fill-rule:nonzero;fill:rgb(42.489624%,9.460449%,13.009644%);fill-opacity:1;" d="M 155.394531 22.070312 C 155.449219 22.082031 155.488281 22.097656 155.53125 22.097656 C 156.292969 22.082031 157.046875 21.996094 157.765625 21.730469 C 158.746094 21.367188 159.363281 20.675781 159.597656 19.65625 C 159.777344 18.859375 159.777344 18.0625 159.59375 17.269531 C 159.34375 16.226562 158.710938 15.527344 157.699219 15.167969 C 157.035156 14.933594 156.347656 14.867188 155.652344 14.863281 C 155.566406 14.863281 155.484375 14.878906 155.394531 14.886719 C 155.394531 17.292969 155.394531 19.675781 155.394531 22.070312 Z M 148.753906 27.769531 C 148.753906 27.652344 148.75 27.53125 148.75 27.410156 C 148.75 21.46875 148.75 15.527344 148.75 9.585938 C 148.75 9.457031 148.75 9.328125 148.75 9.171875 C 148.847656 9.164062 148.929688 9.148438 149.011719 9.148438 C 150.933594 9.144531 152.855469 9.132812 154.777344 9.15625 C 156.09375 9.171875 157.402344 9.25 158.703125 9.460938 C 161.6875 9.941406 163.953125 11.46875 165.457031 14.097656 C 166 15.050781 166.300781 16.089844 166.429688 17.179688 C 166.605469 18.699219 166.507812 20.191406 165.988281 21.640625 C 165.300781 23.566406 164.035156 25.019531 162.332031 26.125 C 161.246094 26.828125 160.054688 27.230469 158.789062 27.441406 C 157.804688 27.605469 156.808594 27.6875 155.8125 27.714844 C 155.695312 27.71875 155.582031 27.75 155.46875 27.769531 C 153.230469 27.769531 150.992188 27.769531 148.753906 27.769531 "/>
</g>
<g clip-path="url(#clip4)" clip-rule="nonzero">
<path style=" stroke:none;fill-rule:nonzero;fill:rgb(42.489624%,9.460449%,13.009644%);fill-opacity:1;" d="M 80.210938 13.960938 C 80.140625 14.589844 80.167969 17.363281 80.257812 17.621094 C 80.765625 17.59375 81.285156 17.601562 81.800781 17.53125 C 82.476562 17.441406 82.960938 17.066406 83.152344 16.382812 C 83.191406 16.238281 83.21875 16.085938 83.226562 15.9375 C 83.261719 14.945312 82.878906 14.140625 81.71875 13.972656 C 81.230469 13.902344 80.726562 13.960938 80.210938 13.960938 Z M 73.660156 27.769531 C 73.65625 27.652344 73.652344 27.53125 73.652344 27.414062 C 73.652344 21.460938 73.652344 15.511719 73.652344 9.5625 C 73.652344 9.433594 73.652344 9.308594 73.652344 9.144531 C 73.792969 9.144531 73.898438 9.144531 74.003906 9.144531 C 76.707031 9.144531 79.410156 9.136719 82.113281 9.148438 C 83.367188 9.15625 84.605469 9.289062 85.792969 9.722656 C 86.863281 10.117188 87.785156 10.726562 88.476562 11.652344 C 89.042969 12.421875 89.351562 13.292969 89.484375 14.230469 C 89.605469 15.082031 89.609375 15.9375 89.429688 16.789062 C 89.207031 17.851562 88.71875 18.761719 87.847656 19.4375 C 87.367188 19.8125 86.816406 20.03125 86.21875 20.140625 C 86.15625 20.152344 86.09375 20.167969 86.019531 20.183594 C 86.019531 20.324219 86.113281 20.40625 86.175781 20.5 C 87.710938 22.839844 89.246094 25.179688 90.78125 27.519531 C 90.835938 27.601562 90.886719 27.6875 90.933594 27.769531 C 88.4375 27.769531 85.9375 27.769531 83.441406 27.769531 C 83.433594 27.75 83.429688 27.726562 83.421875 27.707031 C 82.386719 25.75 81.351562 23.796875 80.316406 21.839844 C 80.292969 21.796875 80.25 21.765625 80.179688 21.691406 C 80.179688 23.753906 80.179688 25.761719 80.179688 27.769531 C 78.007812 27.769531 75.835938 27.769531 73.660156 27.769531 "/>
</g>
<g clip-path="url(#clip5)" clip-rule="nonzero">
<path style=" stroke:none;fill-rule:nonzero;fill:rgb(42.489624%,9.460449%,13.009644%);fill-opacity:1;" d="M 51.765625 14.808594 C 51.730469 14.804688 51.699219 14.800781 51.664062 14.800781 C 51.539062 16.925781 50.851562 18.925781 50.34375 20.964844 C 50.753906 21.027344 52.878906 21.011719 53.105469 20.945312 C 52.890625 20.128906 52.667969 19.3125 52.457031 18.496094 C 52.160156 17.339844 51.871094 16.183594 51.808594 14.984375 C 51.804688 14.925781 51.78125 14.867188 51.765625 14.808594 Z M 41.460938 27.769531 C 42.113281 25.941406 42.769531 24.113281 43.417969 22.289062 C 44.949219 17.996094 46.476562 13.707031 48.007812 9.417969 C 48.035156 9.339844 48.070312 9.257812 48.105469 9.164062 C 50.574219 9.164062 53.035156 9.164062 55.53125 9.164062 C 55.570312 9.269531 55.625 9.382812 55.664062 9.503906 C 57.769531 15.523438 59.875 21.539062 61.976562 27.558594 C 62.003906 27.628906 62.03125 27.699219 62.058594 27.769531 C 59.648438 27.769531 57.234375 27.769531 54.824219 27.769531 C 54.785156 27.558594 54.753906 27.347656 54.703125 27.140625 C 54.566406 26.574219 54.417969 26.011719 54.273438 25.433594 C 52.582031 25.433594 50.90625 25.433594 49.214844 25.433594 C 49.019531 26.21875 48.824219 26.996094 48.632812 27.769531 C 46.242188 27.769531 43.851562 27.769531 41.460938 27.769531 "/>
</g>
<g clip-path="url(#clip6)" clip-rule="nonzero">
<path style=" stroke:none;fill-rule:nonzero;fill:rgb(42.489624%,9.460449%,13.009644%);fill-opacity:1;" d="M 103.582031 27.769531 C 103.585938 27.664062 103.597656 27.554688 103.597656 27.445312 C 103.597656 23.503906 103.597656 19.558594 103.597656 15.617188 C 103.597656 15.507812 103.597656 15.398438 103.597656 15.25 C 102.359375 15.226562 101.140625 15.253906 99.898438 15.234375 C 99.898438 13.203125 99.898438 11.191406 99.898438 9.160156 C 104.597656 9.160156 109.285156 9.160156 113.988281 9.160156 C 113.988281 11.183594 113.988281 13.1875 113.988281 15.230469 C 113.582031 15.253906 113.175781 15.238281 112.765625 15.238281 C 112.363281 15.242188 111.960938 15.238281 111.558594 15.238281 C 111.148438 15.238281 110.738281 15.238281 110.3125 15.238281 C 110.300781 15.335938 110.289062 15.410156 110.289062 15.484375 C 110.289062 19.546875 110.289062 23.609375 110.289062 27.671875 C 110.289062 27.703125 110.292969 27.738281 110.296875 27.769531 C 108.058594 27.769531 105.820312 27.769531 103.582031 27.769531 "/>
</g>
<g clip-path="url(#clip7)" clip-rule="nonzero">
<path style=" stroke:none;fill-rule:nonzero;fill:rgb(42.489624%,9.460449%,13.009644%);fill-opacity:1;" d="M 116.292969 27.769531 C 116.300781 27.628906 116.3125 27.488281 116.3125 27.351562 C 116.3125 21.433594 116.3125 15.515625 116.3125 9.597656 C 116.3125 9.457031 116.3125 9.320312 116.3125 9.164062 C 118.585938 9.164062 120.816406 9.164062 123.070312 9.164062 C 123.085938 9.230469 123.101562 9.300781 123.109375 9.371094 C 123.113281 9.457031 123.109375 9.542969 123.109375 9.632812 C 123.109375 15.539062 123.109375 21.445312 123.109375 27.351562 C 123.109375 27.488281 123.128906 27.628906 123.136719 27.769531 C 120.855469 27.769531 118.574219 27.769531 116.292969 27.769531 "/>
</g>
<g clip-path="url(#clip8)" clip-rule="nonzero">
<path style=" stroke:none;fill-rule:nonzero;fill:rgb(42.489624%,9.460449%,13.009644%);fill-opacity:1;" d="M 63.230469 27.769531 C 63.230469 21.578125 63.230469 15.386719 63.230469 9.203125 C 63.472656 9.132812 69.507812 9.113281 70.011719 9.179688 C 70.011719 15.371094 70.011719 21.570312 70.011719 27.769531 C 67.75 27.769531 65.492188 27.769531 63.230469 27.769531 "/>
</g>
<g clip-path="url(#clip9)" clip-rule="nonzero">
<path style=" stroke:none;fill-rule:nonzero;fill:rgb(42.489624%,9.460449%,13.009644%);fill-opacity:1;" d="M 169.222656 27.769531 C 169.21875 27.660156 169.21875 27.554688 169.21875 27.445312 C 169.21875 21.488281 169.21875 15.53125 169.21875 9.570312 C 169.21875 9.445312 169.21875 9.316406 169.21875 9.144531 C 169.355469 9.144531 169.472656 9.144531 169.589844 9.144531 C 171.605469 9.144531 173.625 9.144531 175.644531 9.144531 C 175.761719 9.144531 175.882812 9.132812 176 9.128906 C 176 15.339844 176 21.554688 176 27.769531 C 173.738281 27.769531 171.480469 27.769531 169.222656 27.769531 "/>
</g>
<g clip-path="url(#clip10)" clip-rule="nonzero">
<path style=" stroke:none;fill-rule:nonzero;fill:rgb(42.489624%,9.460449%,13.009644%);fill-opacity:1;" d="M 26.019531 15.199219 C 29.1875 15.199219 32.335938 15.199219 35.476562 15.199219 C 35.492188 15.214844 35.5 15.222656 35.507812 15.230469 C 35.515625 15.238281 35.523438 15.246094 35.523438 15.253906 C 35.527344 19.285156 35.53125 23.3125 35.535156 27.339844 C 35.535156 27.425781 35.527344 27.511719 35.523438 27.617188 C 35.433594 27.628906 35.351562 27.644531 35.269531 27.644531 C 31.738281 27.644531 28.210938 27.644531 24.679688 27.640625 C 24.515625 27.640625 24.351562 27.640625 24.195312 27.609375 C 23.375 27.453125 22.894531 26.917969 22.753906 26.058594 C 22.636719 25.335938 22.71875 24.628906 22.855469 23.925781 C 23.140625 22.503906 23.625 21.144531 24.148438 19.800781 C 24.722656 18.316406 25.339844 16.847656 25.941406 15.371094 C 25.960938 15.320312 25.984375 15.273438 26.019531 15.199219 "/>
</g>
</g>
</svg>

<svg xmlns="http://www.w3.org/2000/svg" width="176pt" height="37.027" viewBox="0 0 176 27.77"><defs><clipPath id="a"><path d="M0 0h36v27.77H0Zm0 0"/></clipPath><clipPath id="b"><path d="M126 9h20v18.77h-20Zm0 0"/></clipPath><clipPath id="c"><path d="M148 9h19v18.77h-19Zm0 0"/></clipPath><clipPath id="d"><path d="M73 9h18v18.77H73Zm0 0"/></clipPath><clipPath id="e"><path d="M41 9h22v18.77H41Zm0 0"/></clipPath><clipPath id="f"><path d="M99 9h15v18.77H99Zm0 0"/></clipPath><clipPath id="g"><path d="M116 9h8v18.77h-8Zm0 0"/></clipPath><clipPath id="h"><path d="M63 9h8v18.77h-8Zm0 0"/></clipPath><clipPath id="i"><path d="M169 9h7v18.77h-7Zm0 0"/></clipPath><clipPath id="j"><path d="M22 15h14v12.77H22Zm0 0"/></clipPath></defs><g clip-path="url(#a)"><path d="M35.531 0c0 .121.008.242.008.36v13.527a1 1 0 0 1-.043.05c-.008.004-.02.012-.027.012q-4.431.011-8.864.016c-.054 0-.105-.008-.199-.016.551-1.926 1.102-3.836 1.657-5.773h-.918l-2.024 5.789h-4.59v1.215c1.332.027 2.664-.004 4.032.015-.067.172-.122.32-.176.47-1.047 2.663-2.18 5.292-3.469 7.855-.469.93-.988 1.832-1.688 2.617-.574.644-1.238 1.16-2.09 1.375-.261.066-.53.093-.8.125-.16.02-.324.008-.488.008H0l.66-1.282c.067-.008.133-.02.195-.023 1.227-.047 2.454-.07 3.676-.145 1.246-.074 2.489-.215 3.692-.574.605-.18 1.183-.422 1.707-.777.386-.262.687-.598.965-.965 1.558-2.078 3.035-4.211 4.285-6.488.687-1.258 1.324-2.54 1.996-3.805q2.861-5.353 5.722-10.707c.454-.852.883-1.715 1.32-2.578.052-.09.067-.2.098-.301z" style="stroke:none;fill-rule:nonzero;fill:#6c1821;fill-opacity:1"/></g><g clip-path="url(#b)"><path d="M126.723 27.77q.007-.196.007-.391V9.199c.262-.074 5.45-.105 6.555-.039l5.695 9.602c.016-.008.036-.012.051-.016-.02-.219-.047-.433-.058-.652-.04-.594-.098-1.192-.102-1.785-.012-2.305-.008-4.606-.012-6.91 0-.075.012-.149.016-.235h6.406c.008.082.024.152.024.227v18.28c0 .032-.004.067-.004.099h-6.586q-1.228-2.071-2.457-4.141l-3.047-5.152c-.055-.09-.117-.172-.172-.258.043.832.121 1.64.125 2.453.02 2.367.008 4.73.012 7.098z" style="stroke:none;fill-rule:nonzero;fill:#6c1821;fill-opacity:1"/></g><g clip-path="url(#c)"><path d="M155.395 22.07c.054.012.093.028.136.028.762-.016 1.516-.102 2.235-.368.98-.363 1.597-1.054 1.832-2.074q.271-1.196-.004-2.386-.376-1.564-1.895-2.102c-.664-.234-1.351-.3-2.047-.305-.086 0-.168.016-.257.024zm-6.641 5.7q-.002-.178-.004-.36V9.172c.098-.008.18-.024.262-.024 1.922-.003 3.843-.015 5.765.008 1.317.016 2.625.094 3.926.305 2.984.48 5.25 2.008 6.754 4.637.543.953.844 1.992.973 3.082.175 1.52.078 3.011-.442 4.46-.687 1.926-1.953 3.38-3.656 4.485-1.086.703-2.277 1.105-3.543 1.316a22 22 0 0 1-2.976.274c-.118.004-.231.035-.344.055z" style="stroke:none;fill-rule:nonzero;fill:#6c1821;fill-opacity:1"/></g><g clip-path="url(#d)"><path d="M80.21 13.96c-.07.63-.042 3.403.048 3.661.508-.027 1.027-.02 1.543-.09.676-.09 1.16-.465 1.351-1.148.04-.145.067-.297.075-.445.035-.993-.348-1.797-1.508-1.965-.489-.07-.992-.012-1.508-.012m-6.55 13.81a11 11 0 0 1-.008-.356V9.145h.352c2.703 0 5.406-.008 8.11.003 1.253.008 2.491.141 3.679.575 1.07.394 1.992 1.004 2.684 1.93.566.769.875 1.64 1.007 2.577.121.852.125 1.707-.054 2.56-.223 1.062-.711 1.972-1.582 2.648-.48.375-1.032.593-1.63.703-.062.011-.124.027-.198.043 0 .14.093.222.156.316l4.605 7.02q.082.125.153.25H83.44c-.007-.02-.011-.043-.02-.063-1.034-1.957-2.07-3.91-3.105-5.867-.023-.043-.066-.074-.136-.149v6.079z" style="stroke:none;fill-rule:nonzero;fill:#6c1821;fill-opacity:1"/></g><g clip-path="url(#e)"><path d="M51.766 14.809c-.036-.004-.067-.008-.102-.008-.125 2.125-.812 4.125-1.32 6.164.41.062 2.535.047 2.761-.02-.214-.816-.437-1.633-.648-2.449-.297-1.156-.586-2.312-.648-3.512-.004-.058-.028-.117-.043-.175M41.46 27.769c.652-1.828 1.309-3.656 1.957-5.48q2.295-6.438 4.59-12.871.042-.115.097-.254h7.426c.04.106.094.219.133.34 2.106 6.02 4.211 12.035 6.313 18.055l.082.21h-7.235c-.039-.21-.07-.421-.12-.628-.138-.567-.286-1.13-.43-1.707h-5.06q-.293 1.176-.581 2.336z" style="stroke:none;fill-rule:nonzero;fill:#6c1821;fill-opacity:1"/></g><g clip-path="url(#f)"><path d="M103.582 27.77c.004-.106.016-.215.016-.325V15.25c-1.239-.023-2.457.004-3.7-.016V9.16h14.09v6.07c-.406.024-.812.008-1.222.008-.403.004-.805 0-1.207 0h-1.246c-.012.098-.024.172-.024.246v12.188q.001.048.008.098z" style="stroke:none;fill-rule:nonzero;fill:#6c1821;fill-opacity:1"/></g><g clip-path="url(#g)"><path d="M116.293 27.77c.008-.141.02-.282.02-.418V9.164h6.757q.026.1.04.207c.003.086 0 .172 0 .262v17.719c0 .136.019.277.027.418z" style="stroke:none;fill-rule:nonzero;fill:#6c1821;fill-opacity:1"/></g><g clip-path="url(#h)"><path d="M63.23 27.77V9.203c.243-.07 6.278-.09 6.782-.023v18.59z" style="stroke:none;fill-rule:nonzero;fill:#6c1821;fill-opacity:1"/></g><g clip-path="url(#i)"><path d="M169.223 27.77c-.004-.11-.004-.215-.004-.325v-18.3h6.426c.117 0 .238-.012.355-.016v18.64z" style="stroke:none;fill-rule:nonzero;fill:#6c1821;fill-opacity:1"/></g><g clip-path="url(#j)"><path d="M26.02 15.2h9.457l.03.03q.015.012.016.024l.012 12.086c0 .086-.008.172-.012.277-.09.012-.171.028-.253.028q-5.296.001-10.59-.004c-.164 0-.328 0-.485-.032-.82-.156-1.3-.691-1.441-1.55-.117-.723-.035-1.43.101-2.133.286-1.422.77-2.781 1.293-4.125.575-1.485 1.192-2.953 1.793-4.43.02-.05.043-.098.079-.172" style="stroke:none;fill-rule:nonzero;fill:#6c1821;fill-opacity:1"/></g></svg>
